assets/Pregnant man/Medium/Flat/pregnant_man_flat_medium.svg

<svg width="32" height="32" viewBox="0 0 32 32" fill="none" xmlns="http://www.w3.org/2000/svg">
<path d="M16.4718 12.7953C14.2677 13.4706 12.6284 15.9736 12.6284 18.3354V19.1317C12.6284 19.3837 12.4401 19.5942 12.1929 19.6432C9.3241 20.2125 7.16162 22.7409 7.16162 25.7734V26.9882C7.16162 28.6449 8.50636 29.9882 10.1652 29.9882H12.6284V29.9999H20.3286C21.2962 29.9999 22.0119 29.2167 22.0119 28.2499V16.0165C22.0119 14.7211 21.1666 13.7787 19.9744 13.5297C19.8207 13.4975 19.6658 13.4667 19.5125 13.4311C19.2492 13.37 18.9903 13.2949 18.7489 13.1747L18.6902 13.1454C17.9958 12.7992 17.2138 12.5678 16.4718 12.7953Z" fill="#00A6ED"/>
<path d="M18.1552 20.01C17.7658 21.2725 17.0568 22.7555 15.7587 23.8778C14.161 25.2705 12.094 25.9519 10.8557 26.2625C10.5761 26.3327 10.2866 26.2525 10.0869 26.0521L9.54763 25.511C9.298 25.2605 8.8786 25.2605 8.62896 25.511C8.37932 25.7615 8.37932 26.1824 8.62896 26.4329L8.92853 26.7335H7.67035C7.33084 26.7335 7.03127 26.994 7.00131 27.3347C6.98134 27.6653 7.19104 27.9459 7.49061 28.016C7.35081 28.1363 7.26094 28.3166 7.26094 28.517C7.26094 28.8076 7.45066 29.0581 7.71029 29.1383C7.67035 29.2485 7.66036 29.3788 7.69032 29.509C7.76022 29.7996 8.03981 30 8.34937 30H9.38787C9.43779 30 9.99698 30 10.2366 29.9599C10.4164 29.9299 14.7701 29.3387 18.0354 26.503C20.3021 24.5291 21.3106 21.9339 21.75 20H18.1552V20.01Z" fill="#C68D7B"/>
<path d="M20.2436 15.6201C19.269 15.6201 18.4771 16.3901 18.4771 17.3501C18.4771 17.3701 18.5568 18.5601 18.1 20.0201H21.75C22.0951 18.5401 21.9999 17.4601 21.9999 17.3601C22.01 16.4101 21.2182 15.6201 20.2436 15.6201Z" fill="#007ACF"/>
<path d="M15.4709 9.1965C15.4709 9.94548 14.8637 10.5527 14.1147 10.5527C13.3657 10.5527 12.7585 9.94548 12.7585 9.1965C12.7585 8.44751 13.3657 7.84033 14.1147 7.84033C14.8637 7.84033 15.4709 8.44751 15.4709 9.1965Z" fill="#B87A66"/>
<path d="M23.1906 9.1965C23.1906 9.94548 22.5834 10.5527 21.8344 10.5527C21.0854 10.5527 20.4783 9.94548 20.4783 9.1965C20.4783 8.44751 21.0854 7.84033 21.8344 7.84033C22.5834 7.84033 23.1906 8.44751 23.1906 9.1965Z" fill="#B87A66"/>
<path d="M17.588 3.1333C15.2847 3.1333 13.457 5.08618 13.6239 7.38957L13.941 12.013C14.0829 13.4652 15.2262 14.5 16.6116 14.5H19.2822C20.6759 14.5 21.8193 13.4652 21.9528 12.013L22.2783 7.38957C22.4368 5.08618 20.6175 3.1333 18.3141 3.1333H17.588Z" fill="#C68D7B"/>
<path d="M17.9553 11.7541C17.5046 11.7541 17.0873 11.6456 16.7368 11.462C16.62 11.3952 16.4865 11.5371 16.5616 11.6539C16.862 12.1129 17.3711 12.4134 17.9553 12.4134C18.5395 12.4134 19.0569 12.1129 19.349 11.6539C19.4241 11.5371 19.2906 11.4035 19.1737 11.462C18.8149 11.6456 18.3976 11.7541 17.9553 11.7541Z" fill="#990839"/>
<path d="M17.6381 8.96703L17.2125 10.3524C17.1207 10.6362 17.3377 10.9283 17.6381 10.9283H18.2724C18.5728 10.9283 18.7815 10.6362 18.698 10.3524L18.2724 8.96703C18.1722 8.66659 17.7383 8.66659 17.6381 8.96703Z" fill="#AB6A55"/>
<path fill-rule="evenodd" clip-rule="evenodd" d="M14.8424 8.94172C14.9676 8.44098 15.4266 8.06543 15.969 8.06543C16.5282 8.06543 17.0039 8.47437 17.104 9.00014C17.1207 9.11698 17.0289 9.22547 16.9121 9.22547H15.0677C14.9175 9.22547 14.809 9.0836 14.8424 8.94172ZM21.0599 8.94172C20.9347 8.44098 20.4757 8.06543 19.9332 8.06543C19.3741 8.06543 18.9067 8.47437 18.7982 9.00014C18.7815 9.11698 18.8733 9.22547 18.9902 9.22547H20.8346C20.9848 9.22547 21.0933 9.0836 21.0599 8.94172Z" fill="white"/>
<path fill-rule="evenodd" clip-rule="evenodd" d="M15.3931 9.03378C15.3931 8.62484 15.727 8.29102 16.1359 8.29102C16.5532 8.29102 16.8786 8.62484 16.8703 9.03378C16.8703 9.10889 16.862 9.16731 16.8453 9.23407H15.4182C15.4015 9.16731 15.3931 9.10054 15.3931 9.03378ZM20.5091 9.03378C20.5091 8.62484 20.1752 8.29102 19.7663 8.29102C19.3574 8.29102 19.0235 8.62484 19.0319 9.03378C19.0319 9.10889 19.0402 9.16731 19.0569 9.23407H20.484C20.5007 9.16731 20.5091 9.10054 20.5091 9.03378Z" fill="#7D4533"/>
<path fill-rule="evenodd" clip-rule="evenodd" d="M16.1359 8.60791C16.3696 8.60791 16.5615 8.79986 16.5615 9.03354C16.5615 9.1003 16.5448 9.16707 16.5114 9.23383H15.7603C15.727 9.17541 15.7103 9.10865 15.7103 9.03354C15.7103 8.79986 15.9022 8.60791 16.1359 8.60791ZM19.7663 8.60791C19.5326 8.60791 19.3407 8.79986 19.3407 9.03354C19.3407 9.1003 19.3574 9.16707 19.3908 9.23383H20.1419C20.1753 9.17541 20.192 9.10865 20.192 9.03354C20.192 8.79986 20 8.60791 19.7663 8.60791Z" fill="black"/>
<path fill-rule="evenodd" clip-rule="evenodd" d="M16.0191 8.74144C16.0191 8.81519 15.9593 8.87497 15.8855 8.87497C15.8118 8.87497 15.752 8.81519 15.752 8.74144C15.752 8.66769 15.8118 8.60791 15.8855 8.60791C15.9593 8.60791 16.0191 8.66769 16.0191 8.74144ZM19.6661 8.74144C19.6661 8.81519 19.6063 8.87497 19.5326 8.87497C19.4588 8.87497 19.399 8.81519 19.399 8.74144C19.399 8.66769 19.4588 8.60791 19.5326 8.60791C19.6063 8.60791 19.6661 8.66769 19.6661 8.74144Z" fill="white"/>
<path d="M14.7505 7.5648C14.834 7.68998 14.9675 7.7484 15.1094 7.7484C15.2095 7.7484 15.3013 7.72336 15.3931 7.6566C15.4098 7.63991 15.8271 7.33946 16.4447 7.41457C16.6867 7.43961 16.912 7.26435 16.9454 7.01398C16.9705 6.77196 16.7952 6.54663 16.5448 6.51325C15.5517 6.39641 14.859 6.91384 14.834 6.93887C14.6337 7.08909 14.6003 7.37285 14.7505 7.5648Z" fill="#593B39"/>
<path d="M20.5174 7.6649C20.6008 7.72332 20.701 7.7567 20.7928 7.7567C20.9347 7.7567 21.0682 7.68993 21.16 7.58144C21.3102 7.38949 21.2768 7.0974 21.0765 6.94717C21.0515 6.92214 20.3588 6.40471 19.3657 6.52155C19.1153 6.54658 18.9317 6.77192 18.9651 7.02228C18.9901 7.27265 19.2155 7.45626 19.4658 7.42287C20.0573 7.34996 20.4678 7.63096 20.5142 7.66272L20.5174 7.6649Z" fill="#593B39"/>
<path d="M22.3033 3.95104L21.9528 3.77578C21.7024 3.65059 21.4771 3.48368 21.2768 3.29173L20.5924 2.60739C20.075 2.09831 19.4157 1.81456 18.6312 2.16507C18.1889 2.32364 17.7049 2.32364 17.2542 2.16507C16.6533 1.86463 15.9272 1.98147 15.4515 2.45717L14.6086 3.29173C14.4167 3.49203 14.1914 3.65059 13.941 3.77578L13.5905 3.95104C12.9479 4.27652 12.589 4.98589 12.7225 5.69527L13.1899 8.25738C13.24 8.51609 13.4569 8.6997 13.7157 8.70804C13.7157 8.70804 13.6656 7.98197 13.6322 7.51462C13.6155 7.27259 13.7157 7.03892 13.8909 6.88035L14.0411 6.74682C14.2498 6.55487 14.375 6.28781 14.375 6.00406V5.28634C14.375 5.08604 14.5168 4.90244 14.7088 4.85236C15.2346 4.72718 16.3696 4.50185 17.9469 4.50185C19.5242 4.50185 20.6592 4.72718 21.185 4.86071C21.3853 4.91078 21.5188 5.08604 21.5188 5.29468V6.01241C21.5188 6.29616 21.6357 6.56322 21.8443 6.74682L22.0112 6.8887C22.1948 7.04726 22.2866 7.28094 22.2699 7.52296C22.2365 7.99032 22.1948 8.70804 22.1948 8.70804C22.4452 8.69135 22.6622 8.50775 22.7039 8.25738L23.1712 5.69527C23.3048 4.98589 22.9459 4.27652 22.3033 3.95104Z" fill="#593B39"/>
</svg>

<svg xmlns="http://www.w3.org/2000/svg" width="32" height="32" fill="none"><path fill="#00A6ED" d="M16.472 12.795c-2.204.676-3.844 3.179-3.844 5.54v.797a.53.53 0 0 1-.435.511 6.254 6.254 0 0 0-5.031 6.13v1.215c0 1.657 1.344 3 3.003 3h2.463V30h7.7c.968 0 1.684-.783 1.684-1.75V16.017c0-1.296-.845-2.238-2.038-2.487-.153-.032-.308-.063-.462-.099a3.445 3.445 0 0 1-.763-.256l-.059-.03c-.694-.346-1.476-.577-2.218-.35Z"/><path fill="#C68D7B" d="M18.155 20.01c-.39 1.262-1.098 2.745-2.396 3.868-1.598 1.392-3.665 2.074-4.903 2.384a.804.804 0 0 1-.77-.21l-.538-.541a.655.655 0 0 0-.919 0 .661.661 0 0 0 0 .922l.3.3H7.67c-.34 0-.639.261-.669.602-.02.33.19.61.49.681a.66.66 0 0 0-.23.501c0 .29.19.541.45.621a.66.66 0 0 0-.02.371c.07.29.349.491.658.491h1.039c.05 0 .609 0 .849-.04.18-.03 4.533-.621 7.798-3.457 2.267-1.974 3.276-4.57 3.715-6.503h-3.595v.01Z"/><path fill="#007ACF" d="M20.244 15.62c-.975 0-1.767.77-1.767 1.73 0 .02.08 1.21-.377 2.67h3.65c.345-1.48.25-2.56.25-2.66.01-.95-.782-1.74-1.756-1.74Z"/><path fill="#B87A66" d="M15.47 9.197a1.356 1.356 0 1 1-2.712 0 1.356 1.356 0 0 1 2.713 0ZM23.19 9.197a1.356 1.356 0 1 1-2.712 0 1.356 1.356 0 0 1 2.713 0Z"/><path fill="#C68D7B" d="M17.588 3.133a3.972 3.972 0 0 0-3.964 4.257l.317 4.623c.142 1.452 1.285 2.487 2.67 2.487h2.671c1.394 0 2.537-1.035 2.67-2.487l.326-4.623a3.977 3.977 0 0 0-3.964-4.257h-.726Z"/><path fill="#990839" d="M17.955 11.754c-.45 0-.868-.108-1.218-.292-.117-.067-.25.075-.175.192a1.66 1.66 0 0 0 2.787 0c.075-.117-.058-.25-.175-.192a2.678 2.678 0 0 1-1.219.292Z"/><path fill="#AB6A55" d="m17.638 8.967-.426 1.385a.444.444 0 0 0 .426.576h.634c.3 0 .51-.292.426-.576l-.426-1.385c-.1-.3-.534-.3-.634 0Z"/><path fill="#fff" fill-rule="evenodd" d="M14.842 8.942c.126-.501.585-.877 1.127-.877.56 0 1.035.41 1.135.935a.198.198 0 0 1-.192.225h-1.844a.232.232 0 0 1-.226-.283Zm6.218 0a1.164 1.164 0 0 0-1.127-.877A1.17 1.17 0 0 0 18.798 9a.198.198 0 0 0 .192.225h1.845c.15 0 .258-.141.225-.283Z" clip-rule="evenodd"/><path fill="#7D4533" fill-rule="evenodd" d="M15.393 9.034c0-.41.334-.743.743-.743.417 0 .743.334.734.743a.774.774 0 0 1-.025.2h-1.427a.823.823 0 0 1-.025-.2Zm5.116 0a.744.744 0 0 0-.743-.743.732.732 0 0 0-.734.743c0 .075.008.133.025.2h1.427a.823.823 0 0 0 .025-.2Z" clip-rule="evenodd"/><path fill="#000" fill-rule="evenodd" d="M16.136 8.608a.427.427 0 0 1 .375.626h-.75a.427.427 0 0 1 .376-.626Zm3.63 0a.427.427 0 0 0-.375.626h.75a.427.427 0 0 0-.376-.626Z" clip-rule="evenodd"/><path fill="#fff" fill-rule="evenodd" d="M16.02 8.741a.134.134 0 1 1-.268 0 .134.134 0 0 1 .267 0Zm3.646 0a.134.134 0 1 1-.267 0 .134.134 0 0 1 .267 0Z" clip-rule="evenodd"/><path fill="#593B39" d="M14.75 7.565a.418.418 0 0 0 .36.183.46.46 0 0 0 .283-.091c.017-.017.434-.318 1.052-.242a.462.462 0 0 0 .5-.401.462.462 0 0 0-.4-.5c-.993-.118-1.686.4-1.711.425a.443.443 0 0 0-.083.626ZM20.517 7.665a.494.494 0 0 0 .276.092.484.484 0 0 0 .367-.176.453.453 0 0 0-.084-.634c-.024-.025-.717-.542-1.71-.425a.446.446 0 0 0-.4.5c.024.25.25.434.5.4.591-.072 1.002.209 1.048.24l.003.003Z"/><path fill="#593B39" d="m22.303 3.951-.35-.175a2.777 2.777 0 0 1-.676-.484l-.685-.685c-.517-.509-1.176-.792-1.96-.442a2.052 2.052 0 0 1-1.378 0c-.6-.3-1.327-.184-1.803.292l-.842.835a2.4 2.4 0 0 1-.668.484l-.35.175a1.624 1.624 0 0 0-.868 1.744l.467 2.562c.05.26.267.443.526.451 0 0-.05-.726-.084-1.193a.787.787 0 0 1 .259-.635l.15-.133c.209-.192.334-.46.334-.743v-.718c0-.2.142-.384.334-.434.526-.125 1.66-.35 3.238-.35 1.577 0 2.712.225 3.238.359.2.05.334.225.334.434v.717c0 .284.117.551.325.735l.167.142a.761.761 0 0 1 .259.634c-.034.467-.075 1.185-.075 1.185a.55.55 0 0 0 .509-.45l.467-2.563a1.623 1.623 0 0 0-.868-1.744Z"/></svg>
